dist/img/fast_circle.svg

<svg width="79" height="78" viewBox="0 0 79 78" fill="none" xmlns="http://www.w3.org/2000/svg">
<g style="mix-blend-mode:soft-light" filter="url(#filter0_f_211_4142)">
<circle cx="39.5" cy="39" r="35" fill="#EBEDEF"/>
</g>
<rect x="17.5" y="17" width="44" height="44" rx="22" fill="#44B46D"/>
<g clip-path="url(#clip0_211_4142)">
<path d="M53.0446 38.3207C52.7535 37.9738 52.3564 37.7483 51.9012 37.664L51.6874 34.762C51.8983 34.76 52.0782 34.608 52.1149 34.3998L52.1974 33.9322C52.2858 33.4309 52.1625 32.9361 51.8592 32.5747C51.5562 32.2137 51.1126 32.0148 50.6101 32.0148H47.3915L47.5482 31.1264C47.5927 30.874 47.5282 30.6221 47.3715 30.4353C47.2163 30.2503 46.9829 30.1442 46.7313 30.1442H30.888C30.4195 30.1442 29.9883 30.5087 29.9062 30.9742L28.5045 38.9239C28.4625 39.1624 28.6217 39.3897 28.8601 39.4317C28.8858 39.4363 28.9114 39.4385 28.9367 39.4385C29.1455 39.4385 29.3305 39.2888 29.3679 39.0761L30.7697 31.1264C30.7789 31.074 30.8463 31.021 30.888 31.021L46.6764 31.021L45.2829 38.9239C45.2408 39.1624 45.4 39.3897 45.6385 39.4317C45.8767 39.4737 46.1043 39.3146 46.1463 39.0761L46.2474 38.503H51.4901C51.4902 38.503 51.4905 38.503 51.4907 38.503C51.4909 38.503 51.4911 38.503 51.4913 38.503C51.8536 38.5031 52.1667 38.6385 52.3729 38.8842C52.5149 39.0533 52.5977 39.2639 52.6176 39.4968H51.1613C50.9485 39.4968 50.7665 39.6495 50.7295 39.8591L50.5647 40.7943C50.4982 41.1711 50.592 41.5445 50.8221 41.8186C51.0489 42.0891 51.3933 42.2441 51.7667 42.2441H52.1795L51.8394 44.1731H50.6819C50.6057 43.7873 50.439 43.4324 50.1863 43.1314C49.7379 42.5969 49.078 42.3026 48.3284 42.3026C47.1264 42.3026 45.9668 43.089 45.4239 44.1732H45.2477L45.8166 40.9466C45.8586 40.7082 45.6994 40.4808 45.4609 40.4388C45.2226 40.3967 44.9951 40.556 44.9531 40.7945L44.3573 44.1732H36.2416C36.1654 43.7874 35.9987 43.4326 35.746 43.1315C35.2975 42.597 34.6377 42.3027 33.8881 42.3027C32.6861 42.3027 31.5265 43.0891 30.9836 44.1733L28.4691 44.1732L28.6444 43.1795H30.6147C30.8568 43.1795 31.0531 42.9833 31.0531 42.7411C31.0531 42.499 30.8569 42.3027 30.6147 42.3027H25.9384C25.6963 42.3027 25.5 42.499 25.5 42.7411C25.5 42.9832 25.6963 43.1795 25.9384 43.1795H27.7541L27.5974 44.0679C27.553 44.3203 27.6174 44.5722 27.7741 44.759C27.9293 44.944 28.1627 45.0501 28.4144 45.0501H30.6989C30.58 45.7938 30.7586 46.4944 31.2057 47.0271C31.6541 47.5615 32.314 47.8558 33.0636 47.8558C34.5557 47.8558 35.9832 46.6444 36.2458 45.1553C36.2519 45.1201 36.2568 45.085 36.2617 45.05H45.1392C45.0203 45.7937 45.1989 46.4943 45.6461 47.027C46.0945 47.5615 46.7543 47.8558 47.504 47.8558C48.996 47.8558 50.4236 46.6444 50.6861 45.1553C50.6923 45.12 50.6972 45.085 50.7021 45.05H52.2074C52.4201 45.05 52.6021 44.8972 52.6391 44.6877L53.4637 40.0113C53.5756 39.3766 53.4268 38.7762 53.0446 38.3207ZM46.4021 37.6264L46.9072 34.7621H50.8083L51.0194 37.6264H46.4021ZM51.3339 33.78L51.3153 33.8853H47.0617L47.2369 32.8916H50.6101C50.8489 32.8916 51.054 32.9792 51.1874 33.1383C51.3258 33.3031 51.3779 33.531 51.3339 33.78ZM35.3823 45.0032C35.1902 46.0927 34.15 46.9791 33.0636 46.9791C32.5777 46.9791 32.1563 46.796 31.8774 46.4636C31.5904 46.1215 31.481 45.657 31.5694 45.1555C31.7616 44.066 32.8017 43.1796 33.8881 43.1796C34.3741 43.1796 34.7954 43.3627 35.0744 43.6952C35.3614 44.0371 35.4707 44.5017 35.3823 45.0032ZM49.8226 45.0032C49.6305 46.0927 48.5903 46.9791 47.5039 46.9791C47.0179 46.9791 46.5966 46.796 46.3177 46.4635C46.0307 46.1215 45.9213 45.6569 46.0097 45.1555C46.2018 44.0659 47.242 43.1796 48.3284 43.1796C48.8143 43.1796 49.2357 43.3627 49.5147 43.6951C49.8017 44.0371 49.911 44.5017 49.8226 45.0032ZM52.3341 41.3675H51.7667V41.3675C51.6498 41.3675 51.5554 41.3286 51.4937 41.2553C51.4298 41.179 51.4065 41.0695 51.4281 40.9468L51.5292 40.3739H52.5093L52.3341 41.3675Z" fill="#EBEDEF"/>
<path d="M34.1984 44.4643C34.0432 44.2794 33.8098 44.1733 33.5581 44.1733C33.0896 44.1733 32.6583 44.5378 32.5763 45.0032C32.5318 45.2555 32.5962 45.5075 32.753 45.6943C32.9082 45.8793 33.1415 45.9853 33.3932 45.9853C33.8617 45.9853 34.293 45.6208 34.375 45.1555C34.4196 44.9031 34.3552 44.6512 34.1984 44.4643Z" fill="#EBEDEF"/>
<path d="M48.6397 44.4643C48.4845 44.2793 48.2511 44.1732 47.9995 44.1732C47.531 44.1732 47.0997 44.5377 47.0177 45.0031C46.9732 45.2555 47.0375 45.5074 47.1943 45.6942C47.3495 45.8792 47.5829 45.9853 47.8345 45.9853C48.3031 45.9853 48.7343 45.6207 48.8164 45.1554C48.8609 44.903 48.7965 44.6511 48.6397 44.4643Z" fill="#EBEDEF"/>
<path d="M43.1852 42.3027H37.6298C37.3877 42.3027 37.1914 42.499 37.1914 42.7412C37.1914 42.9833 37.3877 43.1796 37.6298 43.1796H43.1852C43.4273 43.1796 43.6236 42.9833 43.6236 42.7412C43.6235 42.499 43.4273 42.3027 43.1852 42.3027Z" fill="#EBEDEF"/>
<path d="M35.2916 40.4323H27.2041C26.962 40.4323 26.7656 40.6285 26.7656 40.8707C26.7656 41.1128 26.9618 41.3091 27.2041 41.3091H35.2916C35.5337 41.3091 35.73 41.1128 35.73 40.8707C35.73 40.6285 35.5337 40.4323 35.2916 40.4323Z" fill="#EBEDEF"/>
<path d="M43.6638 38.6684L42.0407 37.2655C41.8575 37.1073 41.5807 37.1273 41.4223 37.3105C41.2639 37.4937 41.2841 37.7706 41.4673 37.9289L42.1995 38.5618H31.083C30.8409 38.5618 30.6445 38.7581 30.6445 39.0002C30.6445 39.2423 30.8408 39.4386 31.083 39.4386H41.9214L41.0172 40.0377C40.8153 40.1713 40.7601 40.4434 40.8938 40.6453C40.9781 40.7726 41.1176 40.8416 41.2596 40.8416C41.3428 40.8416 41.4269 40.818 41.5014 40.7686L43.6193 39.3657C43.7337 39.29 43.8059 39.1651 43.8146 39.0282C43.8234 38.8912 43.7676 38.7581 43.6638 38.6684Z" fill="#EBEDEF"/>
</g>
<defs>
<filter id="filter0_f_211_4142" x="0.5" y="0" width="78" height="78" filterUnits="userSpaceOnUse" color-interpolation-filters="sRGB">
<feFlood flood-opacity="0" result="BackgroundImageFix"/>
<feBlend mode="normal" in="SourceGraphic" in2="BackgroundImageFix" result="shape"/>
<feGaussianBlur stdDeviation="2" result="effect1_foregroundBlur_211_4142"/>
</filter>
<clipPath id="clip0_211_4142">
<rect width="28" height="28" fill="white" transform="translate(25.5 25)"/>
</clipPath>
</defs>
</svg>

<svg width="79" height="78" fill="none" xmlns="http://www.w3.org/2000/svg"><g style="mix-blend-mode:soft-light" filter="url(#filter0_f_211_4142)"><circle cx="39.5" cy="39" r="35" fill="#EBEDEF"/></g><rect x="17.5" y="17" width="44" height="44" rx="22" fill="#44B46D"/><g clip-path="url(#clip0_211_4142)" fill="#EBEDEF"><path d="M53.045 38.32a1.93 1.93 0 00-1.144-.656l-.214-2.902a.438.438 0 00.428-.362l.082-.468a1.65 1.65 0 00-.338-1.357c-.303-.361-.746-.56-1.249-.56h-3.218l.156-.889a.843.843 0 00-.177-.69.83.83 0 00-.64-.292H30.888c-.469 0-.9.365-.982.83l-1.401 7.95a.438.438 0 10.863.152l1.402-7.95c.009-.052.076-.105.118-.105h15.788l-1.393 7.903a.438.438 0 10.863.152l.101-.573h5.244c.363 0 .676.136.882.381.142.17.225.38.245.613H51.16a.438.438 0 00-.431.362l-.165.935c-.067.377.027.75.257 1.025.227.27.571.425.945.425h.412l-.34 1.93h-1.157a2.302 2.302 0 00-.496-1.043c-.448-.534-1.108-.828-1.858-.828-1.202 0-2.361.786-2.904 1.87h-.176l.569-3.226a.438.438 0 10-.864-.153l-.596 3.38h-8.115a2.303 2.303 0 00-.496-1.042c-.449-.535-1.108-.83-1.858-.83-1.202 0-2.361.787-2.904 1.871h-2.515l.175-.994h1.97a.438.438 0 100-.876h-4.676a.438.438 0 000 .877h1.816l-.157.888a.843.843 0 00.177.691.83.83 0 00.64.291H30.7c-.119.744.06 1.444.507 1.977.448.535 1.108.829 1.858.829 1.492 0 2.92-1.212 3.182-2.7l.016-.106h8.877c-.119.744.06 1.444.507 1.977.448.535 1.108.829 1.858.829 1.492 0 2.92-1.212 3.182-2.7a3.05 3.05 0 00.016-.106h1.505a.438.438 0 00.432-.362l.825-4.677c.112-.634-.037-1.235-.42-1.69zm-6.643-.694l.505-2.864h3.901l.211 2.864h-4.617zm4.932-3.846l-.019.105h-4.253l.175-.993h3.373c.239 0 .444.087.577.246.139.165.19.393.147.642zM35.382 45.003c-.192 1.09-1.232 1.976-2.318 1.976-.486 0-.908-.183-1.187-.515-.287-.343-.396-.807-.308-1.308.193-1.09 1.233-1.976 2.32-1.976.485 0 .906.183 1.185.515.287.342.397.807.308 1.308zm14.44 0c-.192 1.09-1.232 1.976-2.318 1.976-.486 0-.907-.183-1.186-.515-.287-.343-.397-.807-.308-1.308.192-1.09 1.232-1.976 2.318-1.976.486 0 .908.183 1.187.515.287.342.396.807.308 1.308zm2.512-3.636h-.567a.343.343 0 01-.273-.112.372.372 0 01-.066-.308l.101-.573h.98l-.175.993z"/><path d="M34.198 44.464a.83.83 0 00-.64-.29c-.468 0-.9.364-.982.83a.842.842 0 00.177.69.83.83 0 00.64.291c.469 0 .9-.364.982-.83a.842.842 0 00-.177-.69zm14.442 0a.83.83 0 00-.64-.29c-.469 0-.9.364-.982.83a.842.842 0 00.176.69.83.83 0 00.64.291c.47 0 .9-.364.982-.83a.842.842 0 00-.176-.69zm-5.455-2.161H37.63a.438.438 0 000 .877h5.555a.438.438 0 000-.877zm-7.893-1.871h-8.088a.438.438 0 100 .877h8.088a.438.438 0 000-.877zm8.372-1.764l-1.623-1.402a.439.439 0 00-.574.663l.733.633H31.082a.439.439 0 000 .877H41.92l-.904.599a.438.438 0 10.484.73l2.118-1.402a.438.438 0 00.045-.698z"/></g><defs><clipPath id="clip0_211_4142"><path fill="#fff" transform="translate(25.5 25)" d="M0 0h28v28H0z"/></clipPath><filter id="filter0_f_211_4142" x=".5" y="0" width="78" height="78" filterUnits="userSpaceOnUse" color-interpolation-filters="sRGB"><feFlood flood-opacity="0" result="BackgroundImageFix"/><feBlend in="SourceGraphic" in2="BackgroundImageFix" result="shape"/><feGaussianBlur stdDeviation="2" result="effect1_foregroundBlur_211_4142"/></filter></defs></svg>
